; generated by Slic3r 0.9.10-OpenSL-dev on 2013-06-12 at 07:45:23

; layer_height = 0.1
; perimeters = 5
; top_solid_layers = 0
; bottom_solid_layers = 0
; fill_density = 0.0
; perimeter_speed = 500
; infill_speed = 500
; travel_speed = 500
; nozzle_diameter = 0.1
; filament_diameter = 1.75
; extrusion_multiplier = 1
; perimeters extrusion width = 0.11mm
; infill extrusion width = 0.11mm
; solid infill extrusion width = 0.11mm
; top infill extrusion width = 0.11mm
; first layer extrusion width = 0.20mm

G21 ; set units to millimeters
M107
G28 ; home all axes
G90 ; use absolute coordinates
G92 E0
M82 ; use absolute distances for extrusion
G1 X18.615 Y18.235 F30000.000
M600 S255
M400
G1 X19.405 Y17.565 F30000.000
G1 X19.855 Y17.245
G1 X20.315 Y16.945
G1 X21.295 Y16.465
G1 X21.815 Y16.245
G1 X22.875 Y15.945
G1 X23.435 Y15.825
G1 X23.995 Y15.755
G1 X24.535 Y15.715
G1 X24.995 Y15.695
G1 X74.995 Y15.695
G1 X75.995 Y15.755
G1 X76.555 Y15.825
G1 X77.115 Y15.945
G1 X77.645 Y16.085
G1 X78.175 Y16.245
G1 X78.695 Y16.465
G1 X79.675 Y16.945
G1 X80.135 Y17.245
G1 X80.585 Y17.565
G1 X81.375 Y18.235
G1 X81.755 Y18.615
G1 X82.425 Y19.405
G1 X83.045 Y20.315
G1 X83.525 Y21.295
G1 X83.745 Y21.815
G1 X84.045 Y22.875
G1 X84.225 Y23.885
G1 X84.305 Y24.995
G1 X84.305 Y74.995
G1 X84.225 Y76.105
G1 X84.045 Y77.115
G1 X83.745 Y78.175
G1 X83.525 Y78.695
G1 X83.045 Y79.675
G1 X82.745 Y80.135
G1 X82.425 Y80.585
G1 X81.755 Y81.375
G1 X81.375 Y81.755
G1 X80.585 Y82.425
G1 X79.675 Y83.045
G1 X78.695 Y83.525
G1 X78.175 Y83.745
G1 X77.115 Y84.045
G1 X76.105 Y84.225
G1 X74.995 Y84.305
G1 X24.995 Y84.305
G1 X23.885 Y84.225
G1 X22.875 Y84.045
G1 X21.815 Y83.745
G1 X21.295 Y83.525
G1 X20.315 Y83.045
G1 X19.855 Y82.745
G1 X19.405 Y82.425
G1 X18.615 Y81.755
G1 X18.235 Y81.375
G1 X17.565 Y80.585
G1 X17.245 Y80.135
G1 X16.945 Y79.675
G1 X16.465 Y78.695
G1 X16.245 Y78.175
G1 X15.945 Y77.115
G1 X15.825 Y76.555
G1 X15.755 Y75.995
G1 X15.715 Y75.455
G1 X15.695 Y74.995
G1 X15.695 Y24.995
G1 X15.755 Y23.995
G1 X15.825 Y23.435
G1 X15.945 Y22.875
G1 X16.085 Y22.345
G1 X16.245 Y21.815
G1 X16.465 Y21.295
G1 X16.945 Y20.315
G1 X17.245 Y19.855
G1 X17.565 Y19.405
G1 X18.235 Y18.615
G1 X18.596 Y18.254
M601
M400
G1 X23.335 Y23.016 F30000.000
M600 S255
M400
G1 X23.705 Y22.757 F21000.000
G1 X24.114 Y22.567
G1 X24.550 Y22.450
G1 X24.996 Y22.411
G1 X75.004 Y22.411
G1 X75.450 Y22.450
G1 X75.886 Y22.567
G1 X76.295 Y22.757
G1 X76.665 Y23.016
G1 X76.984 Y23.335
G1 X77.243 Y23.705
G1 X77.433 Y24.114
G1 X77.550 Y24.550
G1 X77.589 Y24.996
G1 X77.589 Y75.004
G1 X77.550 Y75.450
G1 X77.433 Y75.886
G1 X77.243 Y76.295
G1 X76.984 Y76.665
G1 X76.665 Y76.984
G1 X76.295 Y77.243
G1 X75.886 Y77.433
G1 X75.450 Y77.550
G1 X75.004 Y77.589
G1 X24.996 Y77.589
G1 X24.550 Y77.550
G1 X24.114 Y77.433
G1 X23.705 Y77.243
G1 X23.335 Y76.984
G1 X23.016 Y76.665
G1 X22.757 Y76.295
G1 X22.567 Y75.886
G1 X22.450 Y75.450
G1 X22.411 Y75.004
G1 X22.411 Y24.996
G1 X22.450 Y24.550
G1 X22.567 Y24.114
G1 X22.757 Y23.705
G1 X23.016 Y23.335
G1 X23.316 Y23.035
M601
M400
G1 X23.310 Y22.840 F30000.000
G1 X23.049 Y22.675
M600 S255
M400
G1 X23.482 Y22.371 F30000.000
G1 X23.962 Y22.148
G1 X24.473 Y22.011
G1 X25.004 Y21.964
G1 X74.996 Y21.964
G1 X75.527 Y22.011
G1 X76.038 Y22.148
G1 X76.518 Y22.371
G1 X76.951 Y22.675
G1 X77.325 Y23.049
G1 X77.629 Y23.482
G1 X77.852 Y23.962
G1 X77.989 Y24.473
G1 X78.036 Y25.004
G1 X78.036 Y74.996
G1 X77.989 Y75.527
G1 X77.852 Y76.038
G1 X77.629 Y76.518
G1 X77.325 Y76.951
G1 X76.951 Y77.325
G1 X76.518 Y77.629
G1 X76.038 Y77.852
G1 X75.527 Y77.989
G1 X74.996 Y78.036
G1 X25.004 Y78.036
G1 X24.473 Y77.989
G1 X23.962 Y77.852
G1 X23.482 Y77.629
G1 X23.049 Y77.325
G1 X22.675 Y76.951
G1 X22.371 Y76.518
G1 X22.148 Y76.038
G1 X22.011 Y75.527
G1 X21.964 Y74.996
G1 X21.964 Y25.004
G1 X22.011 Y24.473
G1 X22.148 Y23.962
G1 X22.371 Y23.482
G1 X22.675 Y23.049
G1 X23.030 Y22.694
M601
M400
M106 S255
G1 L5.2 F300
G4 P500
G1 R5.2 F300
G4 P500
G1 Z0.2 F300
G4 P1000
G1 X23.292 Y22.965 F30000.000
M600 S255
M400
G1 X23.672 Y22.699 F30000.000
G1 X24.091 Y22.504
G1 X24.539 Y22.384
G1 X24.993 Y22.344
G1 X75.007 Y22.344
G1 X75.461 Y22.384
G1 X75.909 Y22.504
G1 X76.328 Y22.699
G1 X76.708 Y22.965
G1 X77.035 Y23.292
G1 X77.301 Y23.672
G1 X77.496 Y24.091
G1 X77.616 Y24.539
G1 X77.656 Y24.993
G1 X77.656 Y75.007
G1 X77.616 Y75.461
G1 X77.496 Y75.909
G1 X77.301 Y76.328
G1 X77.035 Y76.708
G1 X76.708 Y77.035
G1 X76.328 Y77.301
G1 X75.909 Y77.496
G1 X75.461 Y77.616
G1 X75.007 Y77.656
G1 X24.993 Y77.656
G1 X24.539 Y77.616
G1 X24.091 Y77.496
G1 X23.672 Y77.301
G1 X23.292 Y77.035
G1 X22.965 Y76.708
G1 X22.699 Y76.328
G1 X22.504 Y75.909
G1 X22.384 Y75.461
G1 X22.344 Y75.007
G1 X22.344 Y24.993
G1 X22.384 Y24.539
G1 X22.504 Y24.091
G1 X22.699 Y23.672
G1 X22.965 Y23.292
G1 X23.281 Y22.976
M601
M400
G1 X23.359 Y23.045 F30000.000
M600 S255
M400
G1 X23.724 Y22.790 F21000.000
G1 X24.127 Y22.602
G1 X24.557 Y22.487
G1 X24.998 Y22.448
G1 X75.002 Y22.448
G1 X75.443 Y22.487
G1 X75.873 Y22.602
G1 X76.276 Y22.790
G1 X76.641 Y23.045
G1 X76.955 Y23.359
G1 X77.210 Y23.724
G1 X77.398 Y24.127
G1 X77.513 Y24.557
G1 X77.552 Y24.998
G1 X77.552 Y75.002
G1 X77.513 Y75.443
G1 X77.398 Y75.873
G1 X77.210 Y76.276
G1 X76.955 Y76.641
G1 X76.641 Y76.955
G1 X76.276 Y77.210
G1 X75.873 Y77.398
G1 X75.443 Y77.513
G1 X75.002 Y77.552
G1 X24.998 Y77.552
G1 X24.557 Y77.513
G1 X24.127 Y77.398
G1 X23.724 Y77.210
G1 X23.359 Y76.955
G1 X23.045 Y76.641
G1 X22.790 Y76.276
G1 X22.602 Y75.873
G1 X22.487 Y75.443
G1 X22.448 Y75.002
G1 X22.448 Y24.998
G1 X22.487 Y24.557
G1 X22.602 Y24.127
G1 X22.790 Y23.724
G1 X23.045 Y23.359
G1 X23.348 Y23.056
M601
M400
G1 X23.344 Y22.942 F30000.000
G1 X21.013 Y21.526
G1 X19.875 Y24.647
G1 X19.875 Y75.353
G1 X21.010 Y78.471
G1 X24.557 Y80.125
G1 X24.848 Y77.760
M600 S255
M400
G1 X75.152 Y77.760 F30000.000
G1 X75.156 Y77.851
G1 X74.989 Y77.865
G1 X25.011 Y77.865
G1 X24.844 Y77.851
G1 X24.847 Y77.775
M601
M400
G1 X24.557 Y80.125 F30000.000
G1 X75.443 Y80.125
G1 X78.990 Y78.471
G1 X80.125 Y75.353
G1 X77.760 Y75.152
M600 S255
M400
G1 X77.760 Y24.848 F30000.000
G1 X77.851 Y24.844
G1 X77.865 Y25.011
G1 X77.865 Y74.989
G1 X77.851 Y75.156
G1 X77.775 Y75.153
M601
M400
G1 X80.125 Y75.353 F30000.000
G1 X80.125 Y24.557
G1 X78.474 Y21.013
G1 X75.353 Y19.875
G1 X75.152 Y22.240
M600 S255
M400
G1 X24.848 Y22.240 F30000.000
G1 X24.844 Y22.149
G1 X25.011 Y22.135
G1 X74.989 Y22.135
G1 X75.156 Y22.149
G1 X75.153 Y22.225
M601
M400
G1 X75.353 Y19.875 F30000.000
G1 X24.557 Y19.875
G1 X21.013 Y21.526
G1 X19.875 Y24.647
G1 X22.240 Y24.848
M600 S255
M400
G1 X22.240 Y75.152 F30000.000
G1 X22.149 Y75.156
G1 X22.135 Y74.989
G1 X22.135 Y25.011
G1 X22.149 Y24.844
G1 X22.225 Y24.847
M601
M400
G1 X22.031 Y25.007 F30000.000
M600 S255
M400
G1 X22.077 Y24.485 F30000.000
G1 X22.210 Y23.985
G1 X22.429 Y23.516
G1 X22.726 Y23.092
G1 X23.092 Y22.726
G1 X23.516 Y22.429
G1 X23.985 Y22.210
G1 X24.485 Y22.077
G1 X25.007 Y22.031
G1 X74.993 Y22.031
G1 X75.515 Y22.077
G1 X76.015 Y22.210
G1 X76.484 Y22.429
G1 X76.908 Y22.726
G1 X77.274 Y23.092
G1 X77.571 Y23.516
G1 X77.789 Y23.985
G1 X77.923 Y24.485
G1 X77.969 Y25.007
G1 X77.969 Y74.993
G1 X77.923 Y75.515
G1 X77.790 Y76.015
G1 X77.571 Y76.484
G1 X77.274 Y76.908
G1 X76.908 Y77.274
G1 X76.484 Y77.571
G1 X76.015 Y77.789
G1 X75.515 Y77.923
G1 X74.993 Y77.969
G1 X25.007 Y77.969
G1 X24.485 Y77.923
G1 X23.985 Y77.790
G1 X23.516 Y77.571
G1 X23.092 Y77.274
G1 X22.726 Y76.908
G1 X22.429 Y76.484
G1 X22.210 Y76.015
G1 X22.077 Y75.515
G1 X22.031 Y74.993
G1 X22.031 Y25.022
M601
M400
G1 X21.927 Y25.002 F30000.000
M600 S255
M400
G1 X21.974 Y24.466 F21000.000
G1 X22.112 Y23.949
G1 X22.339 Y23.464
G1 X22.646 Y23.025
G1 X23.025 Y22.646
G1 X23.464 Y22.339
G1 X23.949 Y22.112
G1 X24.466 Y21.974
G1 X25.002 Y21.927
G1 X74.998 Y21.927
G1 X75.534 Y21.974
G1 X76.051 Y22.112
G1 X76.536 Y22.339
G1 X76.975 Y22.646
G1 X77.354 Y23.025
G1 X77.661 Y23.464
G1 X77.888 Y23.949
G1 X78.026 Y24.466
G1 X78.073 Y25.002
G1 X78.073 Y74.998
G1 X78.026 Y75.534
G1 X77.888 Y76.051
G1 X77.661 Y76.536
G1 X77.354 Y76.975
G1 X76.975 Y77.354
G1 X76.536 Y77.661
G1 X76.051 Y77.888
G1 X75.534 Y78.026
G1 X74.998 Y78.073
G1 X25.002 Y78.073
G1 X24.466 Y78.026
G1 X23.949 Y77.888
G1 X23.464 Y77.661
G1 X23.025 Y77.354
G1 X22.646 Y76.975
G1 X22.339 Y76.536
G1 X22.112 Y76.051
G1 X21.974 Y75.534
G1 X21.927 Y74.998
G1 X21.927 Y25.018
M601
M400
G1 X22.020 Y24.956 F30000.000
G1 L5.3 F300
G4 P500
G1 R5.3 F300
G4 P500
G1 Z0.3 F300
G4 P1000
G1 X22.344 Y24.993
M600 S255
M400
G1 X22.384 Y24.539 F30000.000
G1 X22.504 Y24.091
G1 X22.699 Y23.672
G1 X22.965 Y23.292
G1 X23.292 Y22.965
G1 X23.672 Y22.699
G1 X24.091 Y22.504
G1 X24.539 Y22.384
G1 X24.993 Y22.344
G1 X75.007 Y22.344
G1 X75.461 Y22.384
G1 X75.909 Y22.504
G1 X76.328 Y22.699
G1 X76.708 Y22.965
G1 X77.035 Y23.292
G1 X77.301 Y23.672
G1 X77.496 Y24.091
G1 X77.616 Y24.539
G1 X77.656 Y24.993
G1 X77.656 Y75.007
G1 X77.616 Y75.461
G1 X77.496 Y75.909
G1 X77.301 Y76.328
G1 X77.035 Y76.708
G1 X76.708 Y77.035
G1 X76.328 Y77.301
G1 X75.909 Y77.496
G1 X75.461 Y77.616
G1 X75.007 Y77.656
G1 X24.993 Y77.656
G1 X24.539 Y77.616
G1 X24.091 Y77.496
G1 X23.672 Y77.301
G1 X23.292 Y77.035
G1 X22.965 Y76.708
G1 X22.699 Y76.328
G1 X22.504 Y75.909
G1 X22.384 Y75.461
G1 X22.344 Y75.007
G1 X22.344 Y25.009
M601
M400
G1 X22.448 Y24.998 F30000.000
M600 S255
M400
G1 X22.487 Y24.557 F21000.000
G1 X22.602 Y24.127
G1 X22.790 Y23.724
G1 X23.045 Y23.359
G1 X23.359 Y23.045
G1 X23.724 Y22.790
G1 X24.127 Y22.602
G1 X24.557 Y22.487
G1 X24.998 Y22.448
G1 X75.002 Y22.448
G1 X75.443 Y22.487
G1 X75.873 Y22.602
G1 X76.276 Y22.790
G1 X76.641 Y23.045
G1 X76.955 Y23.359
G1 X77.210 Y23.724
G1 X77.398 Y24.127
G1 X77.513 Y24.557
G1 X77.552 Y24.998
G1 X77.552 Y75.002
G1 X77.513 Y75.443
G1 X77.398 Y75.873
G1 X77.210 Y76.276
G1 X76.955 Y76.641
G1 X76.641 Y76.955
G1 X76.276 Y77.210
G1 X75.873 Y77.398
G1 X75.443 Y77.513
G1 X75.002 Y77.552
G1 X24.998 Y77.552
G1 X24.557 Y77.513
G1 X24.127 Y77.398
G1 X23.724 Y77.210
G1 X23.359 Y76.955
G1 X23.045 Y76.641
G1 X22.790 Y76.276
G1 X22.602 Y75.873
G1 X22.487 Y75.443
G1 X22.448 Y75.002
G1 X22.448 Y25.013
M601
M400
G1 X22.361 Y24.941 F30000.000
G1 X19.875 Y24.647
G1 X19.875 Y75.353
G1 X21.010 Y78.471
G1 X24.557 Y80.125
G1 X24.848 Y77.760
M600 S255
M400
G1 X75.152 Y77.760 F30000.000
G1 X75.156 Y77.851
G1 X74.989 Y77.865
G1 X25.011 Y77.865
G1 X24.844 Y77.851
G1 X24.847 Y77.775
M601
M400
G1 X24.557 Y80.125 F30000.000
G1 X75.443 Y80.125
G1 X78.990 Y78.471
G1 X80.125 Y75.353
G1 X77.760 Y75.152
M600 S255
M400
G1 X77.760 Y24.848 F30000.000
G1 X77.851 Y24.844
G1 X77.865 Y25.011
G1 X77.865 Y74.989
G1 X77.851 Y75.156
G1 X77.775 Y75.153
M601
M400
G1 X80.125 Y75.353 F30000.000
G1 X80.125 Y24.557
G1 X78.471 Y21.010
G1 X75.353 Y19.875
G1 X75.152 Y22.240
M600 S255
M400
G1 X24.848 Y22.240 F30000.000
G1 X24.844 Y22.149
G1 X25.011 Y22.135
G1 X74.989 Y22.135
G1 X75.156 Y22.149
G1 X75.153 Y22.225
M601
M400
G1 X75.353 Y19.875 F30000.000
G1 X24.557 Y19.875
G1 X21.010 Y21.529
G1 X19.875 Y24.647
G1 X22.240 Y24.848
M600 S255
M400
G1 X22.240 Y75.152 F30000.000
G1 X22.149 Y75.156
G1 X22.135 Y74.989
G1 X22.135 Y25.011
G1 X22.149 Y24.844
G1 X22.225 Y24.847
M601
M400
G1 X22.031 Y25.007 F30000.000
M600 S255
M400
G1 X22.077 Y24.485 F30000.000
G1 X22.210 Y23.985
G1 X22.429 Y23.516
G1 X22.726 Y23.092
G1 X23.092 Y22.726
G1 X23.516 Y22.429
G1 X23.985 Y22.210
G1 X24.485 Y22.077
G1 X25.007 Y22.031
G1 X74.993 Y22.031
G1 X75.515 Y22.077
G1 X76.015 Y22.210
G1 X76.484 Y22.429
G1 X76.908 Y22.726
G1 X77.274 Y23.092
G1 X77.571 Y23.516
G1 X77.789 Y23.985
G1 X77.923 Y24.485
G1 X77.969 Y25.007
G1 X77.969 Y74.993
G1 X77.923 Y75.515
G1 X77.790 Y76.015
G1 X77.571 Y76.484
G1 X77.274 Y76.908
G1 X76.908 Y77.274
G1 X76.484 Y77.571
G1 X76.015 Y77.789
G1 X75.515 Y77.923
G1 X74.993 Y77.969
G1 X25.007 Y77.969
G1 X24.485 Y77.923
G1 X23.985 Y77.790
G1 X23.516 Y77.571
G1 X23.092 Y77.274
G1 X22.726 Y76.908
G1 X22.429 Y76.484
G1 X22.210 Y76.015
G1 X22.077 Y75.515
G1 X22.031 Y74.993
G1 X22.031 Y25.022
M601
M400
G1 X21.927 Y25.002 F30000.000
M600 S255
M400
G1 X21.974 Y24.466 F21000.000
G1 X22.112 Y23.949
G1 X22.339 Y23.464
G1 X22.646 Y23.025
G1 X23.025 Y22.646
G1 X23.464 Y22.339
G1 X23.949 Y22.112
G1 X24.466 Y21.974
G1 X25.002 Y21.927
G1 X74.998 Y21.927
G1 X75.534 Y21.974
G1 X76.051 Y22.112
G1 X76.536 Y22.339
G1 X76.975 Y22.646
G1 X77.354 Y23.025
G1 X77.661 Y23.464
G1 X77.888 Y23.949
G1 X78.026 Y24.466
G1 X78.073 Y25.002
G1 X78.073 Y74.998
G1 X78.026 Y75.534
G1 X77.888 Y76.051
G1 X77.661 Y76.536
G1 X77.354 Y76.975
G1 X76.975 Y77.354
G1 X76.536 Y77.661
G1 X76.051 Y77.888
G1 X75.534 Y78.026
G1 X74.998 Y78.073
G1 X25.002 Y78.073
G1 X24.466 Y78.026
G1 X23.949 Y77.888
G1 X23.464 Y77.661
G1 X23.025 Y77.354
G1 X22.646 Y76.975
G1 X22.339 Y76.536
G1 X22.112 Y76.051
G1 X21.974 Y75.534
G1 X21.927 Y74.998
G1 X21.927 Y25.018
M601
M400
G1 X22.020 Y24.956 F30000.000
G1 L5.4 F300
G4 P500
G1 R5.4 F300
G4 P500
G1 Z0.4 F300
G4 P1000
G1 X22.344 Y24.993
M600 S255
M400
G1 X22.384 Y24.539 F30000.000
G1 X22.504 Y24.091
G1 X22.699 Y23.672
G1 X22.965 Y23.292
G1 X23.292 Y22.965
G1 X23.672 Y22.699
G1 X24.091 Y22.504
G1 X24.539 Y22.384
G1 X24.993 Y22.344
G1 X75.007 Y22.344
G1 X75.461 Y22.384
G1 X75.909 Y22.504
G1 X76.328 Y22.699
G1 X76.708 Y22.965
G1 X77.035 Y23.292
G1 X77.301 Y23.672
G1 X77.496 Y24.091
G1 X77.616 Y24.539
G1 X77.656 Y24.993
G1 X77.656 Y75.007
G1 X77.616 Y75.461
G1 X77.496 Y75.909
G1 X77.301 Y76.328
G1 X77.035 Y76.708
G1 X76.708 Y77.035
G1 X76.328 Y77.301
G1 X75.909 Y77.496
G1 X75.461 Y77.616
G1 X75.007 Y77.656
G1 X24.993 Y77.656
G1 X24.539 Y77.616
G1 X24.091 Y77.496
G1 X23.672 Y77.301
G1 X23.292 Y77.035
G1 X22.965 Y76.708
G1 X22.699 Y76.328
G1 X22.504 Y75.909
G1 X22.384 Y75.461
G1 X22.344 Y75.007
G1 X22.344 Y25.009
M601
M400
G1 X22.448 Y24.998 F30000.000
M600 S255
M400
G1 X22.487 Y24.557 F21000.000
G1 X22.602 Y24.127
G1 X22.790 Y23.724
G1 X23.045 Y23.359
G1 X23.359 Y23.045
G1 X23.724 Y22.790
G1 X24.127 Y22.602
G1 X24.557 Y22.487
G1 X24.998 Y22.448
G1 X75.002 Y22.448
G1 X75.443 Y22.487
G1 X75.873 Y22.602
G1 X76.276 Y22.790
G1 X76.641 Y23.045
G1 X76.955 Y23.360
G1 X77.210 Y23.724
G1 X77.398 Y24.127
G1 X77.513 Y24.557
G1 X77.552 Y24.998
G1 X77.552 Y75.002
G1 X77.513 Y75.443
G1 X77.398 Y75.873
G1 X77.210 Y76.276
G1 X76.955 Y76.641
G1 X76.641 Y76.955
G1 X76.276 Y77.210
G1 X75.873 Y77.398
G1 X75.443 Y77.513
G1 X75.002 Y77.552
G1 X24.998 Y77.552
G1 X24.557 Y77.513
G1 X24.127 Y77.398
G1 X23.724 Y77.210
G1 X23.359 Y76.955
G1 X23.045 Y76.641
G1 X22.790 Y76.276
G1 X22.602 Y75.873
G1 X22.487 Y75.443
G1 X22.448 Y75.002
G1 X22.448 Y25.013
M601
M400
G1 X22.361 Y24.941 F30000.000
G1 X19.875 Y24.646
G1 X19.875 Y75.353
G1 X21.010 Y78.471
G1 X24.557 Y80.125
G1 X24.848 Y77.760
M600 S255
M400
G1 X75.152 Y77.760 F30000.000
G1 X75.156 Y77.851
G1 X74.989 Y77.865
G1 X25.011 Y77.865
G1 X24.844 Y77.851
G1 X24.847 Y77.775
M601
M400
G1 X24.557 Y80.125 F30000.000
G1 X75.353 Y80.125
G1 X78.471 Y78.990
G1 X80.125 Y75.443
G1 X77.760 Y75.152
M600 S255
M400
G1 X77.760 Y24.848 F30000.000
G1 X77.851 Y24.844
G1 X77.865 Y25.011
G1 X77.865 Y74.989
G1 X77.851 Y75.156
G1 X77.775 Y75.153
M601
M400
G1 X80.125 Y75.443 F30000.000
G1 X80.125 Y24.557
G1 X78.471 Y21.010
G1 X75.353 Y19.875
G1 X75.152 Y22.240
M600 S255
M400
G1 X24.848 Y22.240 F30000.000
G1 X24.844 Y22.149
G1 X25.011 Y22.135
G1 X74.989 Y22.135
G1 X75.156 Y22.149
G1 X75.153 Y22.225
M601
M400
G1 X75.353 Y19.875 F30000.000
G1 X24.558 Y19.875
G1 X21.017 Y21.522
G1 X19.875 Y24.646
G1 X22.240 Y24.848
M600 S255
M400
G1 X22.240 Y75.152 F30000.000
G1 X22.149 Y75.156
G1 X22.135 Y74.989
G1 X22.135 Y25.011
G1 X22.149 Y24.844
G1 X22.225 Y24.847
M601
M400
G1 X22.031 Y25.007 F30000.000
M600 S255
M400
G1 X22.077 Y24.485 F30000.000
G1 X22.210 Y23.985
G1 X22.429 Y23.516
G1 X22.726 Y23.092
G1 X23.092 Y22.726
G1 X23.516 Y22.429
G1 X23.985 Y22.210
G1 X24.485 Y22.077
G1 X25.007 Y22.031
G1 X74.993 Y22.031
G1 X75.515 Y22.077
G1 X76.015 Y22.210
G1 X76.484 Y22.429
G1 X76.908 Y22.726
G1 X77.274 Y23.092
G1 X77.571 Y23.516
G1 X77.790 Y23.985
G1 X77.923 Y24.485
G1 X77.969 Y25.007
G1 X77.969 Y74.993
G1 X77.923 Y75.515
G1 X77.790 Y76.015
